X:1
T:Ave Regina - Aichinger
T:#
%%score [ 1 2 3 4 ]
L:1/8
Q:1/4=120
M:4/4
K:F
V:1 treble nm="Soprano" snm="S"
V:2 treble nm="Alto" snm="A"
V:3 treble-8 nm="Tenor" snm="T"
V:4 bass nm="Bass" snm="B"
V:1
"^Ave Regina""^Gregor Aichinger\n (1564-1628)" z16 ||[Q:1/4=200] z16 | z4 c4 A4 c4 | B8 (A8 | %4
w: ||Re- gi- na|coe- lo\-|
 d8) c8 |[M:4/2][Q:1/4=200][Q:1/4=200][Q:1/4=200] z8 z4 c4- |[Q:1/4=200] c4 d4 e4 c4 | f8 g6 f2 | %8
w: * rum,|A\-|* ve Do- mi-|na An- ge-|
 e8 d8 | z8 z4 c4- | c4 d8 e4- | e4 c4 e4 (f4- | f2 ed e2 f2 g2 fe d2 e2 | f4) e4 (d8 | c6 BA B8) | %15
w: lo- rum,|A\-|* ve Do\-|* mi- na An\-||* ge- lo\-||
 A16 | z8 z4 F4- | F4 G4 A8 | B8 A8 | G16 | c8 B8 | (A8 G6 FE | D6 E2 F6 G2 | A2 B2 c2 A2 B4) A4 | %24
w: rum,|Sal\-|* ve ra-|dix san-|cta,|sal- ve|ra\- * * *||* * * * * dix|
 G8 F8 | z8 z4 c4 | A4 (B6 AG A4) | G8 z8 | z4 F4 D4 G4 | E4 F4 (F6 G2 | A8) B8 | A4 (F6 G2 A2 B2 | %32
w: san- cta,|ex-|qua mun\- * * *|do,|ex qua mun-|do lux est *|* or-|ta. Ga\- * * *|
 c6 BA d2 c2 B2 A2 | G6 A2 B2 c2 d2 B2 | c6 BA B8) | A4 c2 c2 B4 G4 | A16 | F8 G8 | F4 (f8 e2 d2 | %39
w: |||de glo- ri- o- sa,|su-|per o-|mnes spe\- * *|
 e8) f8- | f8 d8- | d4 c4 z4 d4- | d4 B4 c4 A4 | d8 c8 | B8 A8 | f8 d4 e4- | e4 c4 d8 | %47
w: * ci\-|* o\-|* sa, su\-|* per o- mnes|spe- ci-|o- sa:|Va- le val\-|* de de-|
 (c6 BA B8) | A8 z4 c4- | c4 A4 (B8 | A8) G8 | (c12 d4) | (e6 f2 g8) | c8 z4 d4 | f4 e8 d4- | %55
w: co\- * * *|ra, va\-|* le val\-|* de|de\- *|co\- * *|ra, et|pro no- bis|
 d4 c8 =B4 | c8[Q:1/4=197] d8 |[Q:1/4=194] G4[Q:1/4=190] c8[Q:1/4=187] A4 | %58
w: * sem- per|Chri- stum|ex- o- ra,|
[Q:1/4=184] =B8[Q:1/4=180] (c8- |[Q:1/4=177] c4[Q:1/4=175] =B2[Q:1/4=174] A2[Q:1/4=171] B8 | %60
w: ex- o\-||
[Q:1/4=170] !fermata!c16) | !fermata!c16 |] x16 |] %63
w: |ra.||
V:2
 z16 || A8 B8 | c8 C8 | D4 (E8 F4- | F4) G4 A8 |[M:4/2] B8 A8 | A8 G8 | F4 A4 G8 | z8 F8 | %9
w: |Re- gi-|na, Re-|gi- na *|* coe- lo\-|* rum,|A- ve|Do- mi- na,|A-|
 G8 A4 F4 | (A8 B8) | c6 B2 (A6 G2 | A2 B2 c2 A2 B8 | A6 G2 F4 G4- | G2 F2 F8 E4) | F8 z8 | z8 C8 | %17
w: ve Do- mi-|na *|An- ge- lo\- *||||rum,|Sal-|
 D8 E4 F4 | G8 F4 (E4- | E4 D2 C2 D4) G4- | G4 ^F4 (G2 =FE D2 E2) | F4 (C6 B,A, G,2 A,2 | %22
w: ve ra- dix|san- cta, ra\-|* * * * dix|* san- cta, * * * *|* ra\- * * * *|
 B,2 C2 D8) C4- | C4 A,4 D8 | B,4 C4 D8 | E4 (F6 ED E4) | F8 z4 F4 | D4 (_E6 DC D4) | (C8 B,8) | %29
w: * * * dix|* san- cta,|sal- ve re-|dix san\- * * *|cta, ex|qua mun\- * * *|do *|
 C8 D8 | (E4 D2 C2 G8) | C16- | C8 z8 | z16 | (C2 D2 E2 F2 G2 FE D2 E2 | F8) D4 E2 E2 | F8 C4 C4 | %37
w: lux est|or\- * * *|ta.|||Gau\- * * * * * * * *|* de glo- ri-|o- sa, su-|
 D8 (B,6 C2 | D2 CB, A,2 B,2 C8) | C4 c4 A4 B4- | B4 A4 B4 G4 | A8 F8 | B8 A8 | (F6 G2 A8) | %44
w: per o\- *||mnes, su- per o\-|* mnes spe- ci-|o- sa,|spe- ci-|o\- * *|
 (D6 E2 F4) c4- | c4 A4 B8 | c8 (F6 G2 | A4) A4 (D8 | C6 D2 E2 F2 G4- | G4 ^F4) G4 (D2 E2 | %50
w: sa: * * Va\-|* le val\-|* de *|* de- co\-||* * ra, de\- *|
 F2 G2 A4) B8 | A16 | z4 A4 B8 | A8 (F6 G2 | A8) B8 | A8 G8 | (A6 G2 F4 E2 D2 | E8) A8 | G8 C8 | %59
w: * * * co-|ra,|et pro|no- bis *|* sem-|per Chri-|stum * * * *|* ex-|o- ra,|
 G16 | !fermata!E16 | !fermata!F16 |] x16 |] %63
w: ex-|o-|ra.||
V:3
 z16 || z4 f4 d4 g4 | e4 (c6 d2 e2 f2 | g8) c8 | d8 (e4 f4-) | %5
w: |Re- gi- na|coe- lo\- * * *|* rum,|Re- gi\- *|
[M:4/2][K:treble-8] (f2 ed e4) f4 F4 | (A6 B2 c8) | d8 z4 G4- | G4 A4 B4 A4 | c4 (c6 B2 A2 G2) | %10
w: * * * * na coe-|lo\- * *|rum, A\-|* ve Do- mi-|na An\- * * *|
 F4 f4 (d2 ef g4) | e8 c8- | c4 A4 d8- | d4 c4 d8 | e4 f4 g8 | c4 c8 d4- | d4 (e8 f4- | %17
w: * ge- lo\- * * *|rum, A\-|* ve Do\-|* mi- na|An- ge- lo-|rum, Sal- ve|* ra\- *|
 f2 e2 d4) c8 | (d12 c4- | c4 B2 A2) G8 | z16 | z8 z4 c4- | c4 B8 (A4- | A4 F8) F4 | G8 A4 B4- | %25
w: * * * dix|san\- *|* * * cta,||sal\-|* ve ra\-|* * dix|san- cta ra\-|
 B4 A4 G8 | d8 c8 | B8 A4 (B4- | B2 AG A4) G8 | z8 z4 d4 | c4 (f6 ed e4) | f8 z4 (c4- | %32
w: * dix san\-|* cta,|ex qua mun\-|* * * * do|lux|est or\- * * *|ta. Gau\-|
 c2 d2 e2 f2 d2 e2 f4) | e4 c4 d4 (f4- | f2 ed c2 d2 e2 f2 g4) | c4 A2 A2 B8 | c4 c8 A4- | %37
w: |de glo- ri- o\-||sa, glo- ri- o-|sa, su- per|
 A4 B8 G4 | (A6 GF G8- | G8) d8 | c8 B8 | z4 f8 d4- | d4 g4 e4 (f4- | f4 e2 d2 e4) f4 | g8 c8 | %45
w: * o- mnes|spe\- * * *|* ci-|o- sa,|su- per|* o- mnes spe\-|* * * * ci-|o- sa:|
 z8 z4 g4 | e4 f8 d4 | (e6 f2 g2 d2 g4) | e4 a4 (g2 f2 e2 d2 | c8) d8 | z4 f4 d4 e4- | %51
w: Va-|le, va- le|val\- * * * *|de de- co\- * * *|* ra,|va- le val\-|
 (e2 c2 f4) e4 d4 | c4 A4 z4 d4 | f4 e4 d4 d4- | d4 c4 z4 d4 | f8 e4 d4 | (f4 F6 G2 A2 B2 | %57
w: * * * de de-|co- ra, et|pro no- bis sem\-|* per, et|pro no- bis|sem\- * * * *|
 c12) d4- | d4 g4 e4 c4 | (d16 | !fermata!c16) | !fermata!A16 |] x16 |] %63
w: * per|* Chri- stum ex-|o\-||ra.||
V:4
 F,2 E,2 D,2 E,2 x8 || C,2 D,2 E,2 F,2 x8 | F,8 (G,8 | A,8) A,8 | G,8 A,8 | (B,8 A,8) | %6
w: A\- * * *|ve * * *|Re- gi\-|* na|coe\- *|lo\- *|
[M:4/2] G,8 F,8 | (F,8 E,8 | D,8 E,8) | (C,8 D,8 | E,8 F,8) | F,8 (G,8 | A,8) A,8 | A,8 (G,8 | %14
w: * rum,|A\- *||ve, *||Do- mi\-|* na|An- ge\-|
 A,8) B,8 | (A,8 G,8) | F,8 (F,8 | G,8 A,8 | B,8 A,8 | G,8) A,8 | C8 (B,8 | A,8 G,8) | (F,8 E,8) | %23
w: * lo-|rum, *|* Sal\-|||* ve|ra- dix|||
 G,8 F,8 | F,8 (D,8 | _E,8 D,8 | C,8) C,8 | (D,8 F,8 | G,8) F,8 | F,8 (G,8 | A,8) (B,8 | A,8 G,8) | %32
w: san- cta,|ex qua||* mun\-||* do|lux est|* or\-||
 F,8 (F,8 | A,8) (B,8 | C8) (B,8 | A,8) (G,8 | F,8) G,8 | F,8 F,8 | (D,8 _E,8 | D,8 C,8 | C,8 D,8 | %41
w: ta. Gau\-|* de|* glo\-|* ri\-|* o-|sa, su-|per *|||
 F,8 G,8) | F,8 F,8 | (G,8 A,8) | (B,8 A,8 | G,8) F,8 | (F,8 G,8) | (A,8 B,8 | A,8 G,8) | A,8 C8 | %50
w: |mnes spe-|ci\- *|o\- *|* sa:|Va\- *|||le val-|
 (A,8 G,8) | F,8 G,8 | A,8 A,8 | A,8 (G,8 | A,8) (B,8 | A,8 G,8) | F,8 G,8 | F,8 (D,8 | C,8) (F,8 | %59
w: de *|de- co\-|* ra|et pro|* no\-||bis sem-|per Chri\-|* stum|
 G,8) A,8 | (G,16 | !fermata!C,16) |] !fermata!F,16 |] %63
w: * ex-|o\-||ra.|

